icons/a3-landscape-16.svg

<?xml version="1.0" encoding="UTF-8"?><svg id="icons" xmlns="http://www.w3.org/2000/svg" viewBox="0 0 16 16"><defs><style>.cls-1{fill:none;}.cls-1,.cls-2,.cls-3{stroke-width:0px;}.cls-2{opacity:.25;}</style></defs><rect class="cls-1" width="16" height="16"/><path class="cls-3" d="M12.40039,1H0v10h1V2h10v4h4v8h1V4.59961l-3.59961-3.59961ZM15,5h-3v-3h.31049l2.68951,2.68951v.31049ZM10.5,16c-1.4248,0-2.5-.85938-2.5-2h1c0,.56055.65918,1,1.5,1,.81348,0,1.5-.49805,1.5-1.08789,0-.62695-.77734-.91211-1.5-.91211v-1c.81348,0,1.5-.45801,1.5-1s-.68652-1-1.5-1-1.5.45801-1.5,1h-1c0-1.10254,1.12109-2,2.5-2s2.3.89746,2.3,2c0,.57715-.10664,1.09766-.59687,1.46289.50098.33984.79688.8457.79688,1.44922,0,1.15137-1.12109,2.08789-2.5,2.08789ZM6.31201,16h1.00048l-2.9999-7h-1.00019L.31249,16h1.0005l.857-2h3.28502l.857,2ZM2.59852,13l1.21397-2.83301,1.21399,2.83301h-2.42795Z"/><path class="cls-2" d="M11,4H1v-2h10v2Z"/></svg>

<svg xmlns="http://www.w3.org/2000/svg" viewBox="0 0 16 16"><path stroke-width="0" fill="none" d="M0 0h16v16H0z"/><path d="M12.4 1H0v10h1V2h10v4h4v8h1V4.6L12.4 1zM15 5h-3V2h.31L15 4.69V5zm-4.5 11C9.075 16 8 15.14 8 14h1c0 .56.66 1 1.5 1 .813 0 1.5-.498 1.5-1.088 0-.627-.777-.912-1.5-.912v-1c.813 0 1.5-.458 1.5-1s-.687-1-1.5-1-1.5.458-1.5 1H8c0-1.103 1.121-2 2.5-2s2.3.897 2.3 2c0 .577-.107 1.098-.597 1.463.501.34.797.846.797 1.45C13 15.062 11.879 16 10.5 16zm-4.188 0h1l-3-7h-1l-3 7h1.001l.857-2h3.285l.857 2zm-3.713-3l1.213-2.833L5.026 13H2.6z" stroke-width="0"/><path d="M11 4H1V2h10v2z" opacity=".25" stroke-width="0"/></svg>
